symbols/web/coffee_maker/materialsymbolsrounded/coffee_maker_wght500_40px.svg

<svg xmlns="http://www.w3.org/2000/svg" height="40" width="40"><path d="M9.625 36.958q-1.25 0-2.208-.937-.959-.938-.959-2.229V6.208q0-1.25.959-2.208.958-.958 2.208-.958h22.333q.667 0 1.125.458.459.458.459 1.125 0 .708-.459 1.146-.458.437-1.083.437h-2.417v2.5q0 .709-.562 1.271-.563.563-1.271.563H15.458q-.708 0-1.25-.563-.541-.562-.541-1.271v-2.5H9.625v27.584h7.208q-1.5-1.084-2.333-2.646-.833-1.563-.833-3.729v-5.25q0-1.209.833-2.042.833-.833 2.042-.833h10.125q1.208 0 2.062.833.854.833.854 2.042v5.25q0 2.166-.875 3.729-.875 1.562-2.375 2.646h5.625q.667 0 1.125.458.459.458.459 1.125t-.459 1.125q-.458.458-1.125.458Zm11.958-4.333q2.125 0 3.605-1.521 1.479-1.521 1.479-3.687v-5.25H16.542v5.25q0 2.166 1.458 3.687t3.583 1.521Zm0-15.958q.709 0 1.167-.479.458-.48.458-1.146 0-.709-.458-1.188t-1.167-.479q-.708 0-1.166.479-.459.479-.459 1.188 0 .666.459 1.146.458.479 1.166.479Zm.042 5.5Z"/></svg>

<svg xmlns="http://www.w3.org/2000/svg" height="40" width="40"><path d="M9.625 36.958Q8.375 36.958 7.417 36.021Q6.458 35.083 6.458 33.792V6.208Q6.458 4.958 7.417 4Q8.375 3.042 9.625 3.042H31.958Q32.625 3.042 33.083 3.5Q33.542 3.958 33.542 4.625Q33.542 5.333 33.083 5.771Q32.625 6.208 32 6.208H29.583V8.708Q29.583 9.417 29.021 9.979Q28.458 10.542 27.75 10.542H15.458Q14.75 10.542 14.208 9.979Q13.667 9.417 13.667 8.708V6.208H9.625Q9.625 6.208 9.625 6.208Q9.625 6.208 9.625 6.208V33.792Q9.625 33.792 9.625 33.792Q9.625 33.792 9.625 33.792H16.833Q15.333 32.708 14.5 31.146Q13.667 29.583 13.667 27.417V22.167Q13.667 20.958 14.5 20.125Q15.333 19.292 16.542 19.292H26.667Q27.875 19.292 28.729 20.125Q29.583 20.958 29.583 22.167V27.417Q29.583 29.583 28.708 31.146Q27.833 32.708 26.333 33.792H31.958Q32.625 33.792 33.083 34.25Q33.542 34.708 33.542 35.375Q33.542 36.042 33.083 36.5Q32.625 36.958 31.958 36.958ZM21.583 32.625Q23.708 32.625 25.188 31.104Q26.667 29.583 26.667 27.417V22.167Q26.667 22.167 26.667 22.167Q26.667 22.167 26.667 22.167H16.542Q16.542 22.167 16.542 22.167Q16.542 22.167 16.542 22.167V27.417Q16.542 29.583 18 31.104Q19.458 32.625 21.583 32.625ZM21.583 16.667Q22.292 16.667 22.75 16.188Q23.208 15.708 23.208 15.042Q23.208 14.333 22.75 13.854Q22.292 13.375 21.583 13.375Q20.875 13.375 20.417 13.854Q19.958 14.333 19.958 15.042Q19.958 15.708 20.417 16.188Q20.875 16.667 21.583 16.667ZM21.625 22.167Q21.625 22.167 21.625 22.167Q21.625 22.167 21.625 22.167Q21.625 22.167 21.625 22.167Q21.625 22.167 21.625 22.167Q21.625 22.167 21.625 22.167Q21.625 22.167 21.625 22.167Q21.625 22.167 21.625 22.167Q21.625 22.167 21.625 22.167Z"/></svg>
